coreui/free/cil-paint.svg

<svg xmlns="http://www.w3.org/2000/svg" viewBox="0 0 512 512">
  <path fill="var(--ci-primary-color, currentColor)" d="M418.968,215.116A71.976,71.976,0,0,0,408.023,72H384V40a24.028,24.028,0,0,0-24-24H72A24.028,24.028,0,0,0,48,40V144a24.028,24.028,0,0,0,24,24H360a24.028,24.028,0,0,0,24-24V104h24.023a39.977,39.977,0,0,1,6.079,79.489L240,210.273V280H184V496H328V280H272V237.727ZM352,136H80V48H352ZM296,312V464H216V312Z" class="ci-primary"/>
</svg>

<svg viewBox="0 0 512 512" xmlns="http://www.w3.org/2000/svg"><path d="M418.96 215.11v0c39.28-6.05 66.24-42.79 60.2-82.08 -5.4-35.12-35.62-61.05-71.15-61.04h-24.03v-32 0c-.02-13.25-10.76-23.99-24-24h-288v0c-13.25.01-23.99 10.75-24 24v104 0c.01 13.24 10.75 23.98 24 24h288v0c13.24-.02 23.98-10.76 24-24v-40H408v0c22.07 0 39.97 17.89 39.97 39.97 -.01 19.73-14.4 36.51-33.9 39.51l-174.11 26.78v69.72h-56v216h144v-216h-56v-42.28Zm-66.97-79.12h-272v-88h272Zm-56 176v152h-80v-152Z"/></svg>
